X: 5
T: The Star Of Munster
R: reel
M: 4/4
L: 1/8
K: Amin
cBA c/B/AG|AEF GED|EAA ABd|eaa ged|cBA c/B/AG|AEF GED|EAA ABd|edB AAA:|eaa age|a/a/aa age|g/g/gg ged|bag a/g/ed|eaa age|a/a/aa age|g/g/gg g/a/aa|aba ged|eaa aee|c'ba aee|g/g/gg ged|bag {a}ged|eaa aee|c'ba aee|g/g/gg g/a/aa|aba ged||


Tune 197	Setting 24524

